X: 524
T:Niel Gow's Lament for the Death of His Second Wife
N:"Slow and Pathetic"
M:6/8
L:1/8
N:Posted to the woodenflute mailing list May 2002
Z:Lesl Harker
K:D Major
D/B,/| A,&gt;B,D ~D&gt;ED| (EFA) B2 d| (AFD) (E&gt;DE)|
({DE}F)DB, B,2 D/B,/| A,&gt;B,D D&gt;ED| (EF)A d2 c/2B/2|
(AFD) {=C} B,2 A,| B,DD D2:| (A/4B/4c/)| (dfd) (ecA)|
(B/2A/2)(B/2c/2)({Bc}d) (B/2A/2)(G/2F/2)(E/2D/2)| E&gt;DE {DE}F&gt;ED|
(FD)B, B,2(A/4B/4c/2)| (df)d (ec)A |
(B/A/)(B/c/){Bc}d (B/A/)(G/F/)(E/D/)|E&gt;DE {DE}FDB,|A,DD ~D2 (A/4B/4c/)|
(df)d (ec)A|(B/2A/2)(B/2c/2)({Bc}d) (B/2A/2)(G/2F/2)(E/2D/2)|
(F/2D/2)(A/2F/2)(d/2A/2) (B/2A/2)(G/2F/2)(E/2D/2)| ({DE}F)EE E2 D/2B,/2|
A,&gt;B,D D&gt;ED| (EF)A d2 c/2B/2| (AF)D {=C} B,2 A,| B,DDD2||


